Obsidian/status/16s/ubuntuone-client-paused.svg

<svg height="16" width="16" xmlns="http://www.w3.org/2000/svg"><path d="m6 3a4 4 0 0 0 -4 4 4 4 0 0 0 .0058594.171875 3 3 0 0 0 -2.0058594 2.828125 3 3 0 0 0 3 3h10a3 3 0 0 0 3-3 3 3 0 0 0 -2.009766-2.828125 3 3 0 0 0 .009766-.171875 3 3 0 0 0 -3-3 3 3 0 0 0 -1.8007812.6054688 4 4 0 0 0 -3.1992188-1.6054688zm1 3h1v4h-1zm2 0h1v4h-1z" fill="#d3dae3"/></svg>

<svg xmlns="http://www.w3.org/2000/svg" width="16" height="16" version="1.1">
 <defs>
  <style id="current-color-scheme" type="text/css">
   .ColorScheme-Text { color:#d3dae3; } .ColorScheme-Highlight { color:#5294e2; }
  </style>
 </defs>
 <path style="fill:currentColor" class="ColorScheme-Text" d="M 6 3 A 4 4 0 0 0 2 7 A 4 4 0 0 0 2.0058594 7.171875 A 3 3 0 0 0 0 10 A 3 3 0 0 0 3 13 L 13 13 A 3 3 0 0 0 16 10 A 3 3 0 0 0 13.990234 7.171875 A 3 3 0 0 0 14 7 A 3 3 0 0 0 11 4 A 3 3 0 0 0 9.1992188 4.6054688 A 4 4 0 0 0 6 3 z M 7 6 L 8 6 L 8 10 L 7 10 L 7 6 z M 9 6 L 10 6 L 10 10 L 9 10 L 9 6 z"/>
</svg>
